source/img/vector/traktor-8-vector.svg

<svg width="335" height="169" viewBox="0 0 335 169" fill="none" xmlns="http://www.w3.org/2000/svg">
<path d="M111.683 134.707C111.683 139.82 107.538 143.965 102.425 143.965C97.3118 143.965 93.1667 139.82 93.1667 134.707C93.1667 129.594 97.3118 125.449 102.425 125.449C107.538 125.449 111.683 129.594 111.683 134.707Z" fill="#A0A1A2"/>
<path fill-rule="evenodd" clip-rule="evenodd" d="M102.517 156.308C114.293 156.308 123.839 146.762 123.839 134.986C123.839 123.211 114.293 113.665 102.517 113.665C90.7414 113.665 81.1953 123.211 81.1953 134.986C81.1953 146.762 90.7414 156.308 102.517 156.308ZM102.517 168.652C121.11 168.652 136.183 153.58 136.183 134.986C136.183 116.393 121.11 101.32 102.517 101.32C83.9238 101.32 68.8511 116.393 68.8511 134.986C68.8511 153.58 83.9238 168.652 102.517 168.652Z" fill="#A0A1A2"/>
<path d="M263.57 134.703C263.57 139.816 259.425 143.961 254.312 143.961C249.199 143.961 245.054 139.816 245.054 134.703C245.054 129.59 249.199 125.445 254.312 125.445C259.425 125.445 263.57 129.59 263.57 134.703Z" fill="#A0A1A2"/>
<path fill-rule="evenodd" clip-rule="evenodd" d="M254.401 156.304C266.177 156.304 275.723 146.758 275.723 134.982C275.723 123.207 266.177 113.661 254.401 113.661C242.625 113.661 233.079 123.207 233.079 134.982C233.079 146.758 242.625 156.304 254.401 156.304ZM254.401 168.648C272.994 168.648 288.067 153.576 288.067 134.982C288.067 116.389 272.994 101.316 254.401 101.316C235.808 101.316 220.735 116.389 220.735 134.982C220.735 153.576 235.808 168.648 254.401 168.648Z" fill="#A0A1A2"/>
<path d="M90.6558 96.2734L79.8459 101.858L82.1881 104.921C86.7011 99.7018 98.0844 98.6823 102.597 98.1573C130.939 99.7772 139.077 122.755 140.506 134.829H144.794C143.169 111.611 127.268 95.6076 119.521 90.5081L94.0788 89.0668C84.3501 91.4089 91.1071 93.7986 90.6558 96.2734Z" fill="#A0A1A2"/>
<path d="M215.906 133.026H211.184C212.803 112.173 227.599 96.2313 234.795 90.8672H276.171L286.739 93.3605V101.294C291.417 105.646 298.133 117.009 300.906 122.146H299.107L293.036 112.173L286.739 115.009C276.171 98.9746 258.299 97.3124 249.379 98.9746C224.734 103.508 216.806 122.524 215.906 133.026Z" fill="#A0A1A2"/>
<path d="M219.834 104.561V87.6257H243.408L249.02 89.8541H234.203L219.834 104.561Z" fill="#A0A1A2"/>
<rect x="227.038" y="79.6992" width="2.88264" height="6.48593" fill="#A0A1A2"/>
<path d="M203.617 120.054V115.212L213.706 114.289L212.809 116.826H208.998L207.877 120.054H203.617Z" fill="#A0A1A2"/>
<rect x="214.788" y="93.0306" width="4.32395" height="6.84626" fill="#A0A1A2"/>
<path fill-rule="evenodd" clip-rule="evenodd" d="M22.192 139.873V132.306L18.2284 130.505L9.22014 126.901L7.41849 123.658H5.61685L4.53586 120.055C1.07669 120.632 0.0917932 117.413 0.0317383 115.731H2.37388L1.47306 112.308L2.37388 109.966H0.0317383V108.705H2.37388L6.51767 81.4999V75.9148C23.0928 69.1406 74.0794 61.922 97.5009 59.1595L98.4017 82.7612H100.564L98.4017 30.6935L91.3753 31.5943L78.2232 30.6935V34.2968C78.5115 32.5672 80.5053 32.7353 81.4662 33.0356V47.4488C79.4484 48.1694 77.6227 44.9865 76.9621 43.305V29.2521L81.4662 27.6307H94.7984L97.5009 26.0092L94.7984 23.3067V18.0817H112.815V17.0007H94.7984V16.1001H92.2761V18.9828L89.2133 20.0637L88.1323 14.6588L89.2133 13.758L99.4827 12.8572L103.807 11.9564C105.104 7.05593 107.23 9.91454 108.131 11.9564C107.986 7.05593 113.115 2.22746 115.698 0.425781V6.3713C118.58 5.79477 120.862 7.93273 121.643 9.07377L174.431 10.8754L179.296 11.9564V18.082H174.431V24.3878V64.2042H193.168V93.5711H200.735L211.005 82.7612H215.689L232.624 89.7876L225.958 93.5711L215.689 89.7876H211.005L203.978 99.1562L211.005 106.543C206.691 107.229 204.856 119.626 204.218 131.585H184.519V135.549H204.047C203.908 139.75 203.905 143.72 203.978 146.9H147.406C148.183 116.413 137.939 100.293 127.59 92.6698H170.108V90.5079H124.346V90.5466C120.454 88.3036 116.711 87.1968 113.716 86.905H92.2761L82.9075 89.7876L88.4926 96.2735C67.8818 99.5886 59.0057 121.677 57.144 132.306H42.1903V139.873H22.192ZM117.86 37.7209V25.1094H120.382V37.7209H117.86ZM117.859 41.8636V61.6817H120.382V41.8636H117.859ZM117.86 85.822V66.0039H120.382V85.822H117.86ZM130.112 28.351H143.264L146.507 55.0154H131.193L130.112 28.351ZM102.366 25.2882L100.384 29.432L99.3032 31.7741L102.366 82.2203H112.816V25.2882H102.366ZM7.77948 81.4998L4.71668 104.741H10.1216C13.3646 98.7956 20.2469 84.9229 21.8323 76.9957L7.77948 81.4998ZM24.1743 132.668H40.3891V138.073H24.1743V132.668ZM157.674 113.391L159.116 123.48H175.15L172.448 121.138H161.278L159.116 113.391H157.674ZM161.098 135.55L159.657 125.461H161.098L163.26 133.208H174.43L177.133 135.55H161.098ZM161.098 136.992L162.554 146H178.754L176.024 143.909H164.739L162.554 136.992H161.098ZM126.148 23.125H157.639L163.73 86.9033H126.148V23.125ZM128.31 25.287V84.7413H161.352L155.673 25.287H128.31ZM29.5791 118.614H25.9758V121.496H29.5791V118.614ZM32.4624 116.453H37.1467V121.498H32.4624V116.453ZM48.3158 101.316H46.1538V107.082H48.3158V101.316ZM51.9198 99.1557H54.0818V104.921H51.9198V99.1557ZM58.767 98.4336H56.605V104.199H58.767V98.4336ZM63.4487 96.2731H65.6106V102.038H63.4487V96.2731ZM72.4574 94.4727H70.2954V100.238H72.4574V94.4727ZM35.5257 77.1757L34.4447 80.9592L92.6379 71.7708L91.7371 67.0865L35.5257 77.1757ZM31.7419 89.2469L33.1832 84.5626L92.6376 74.2933V78.7974L31.7419 89.2469ZM181.276 97.7146H187.762V103.84H181.276V97.7146ZM168.306 23.125H171.909V56.6356H168.306V23.125ZM175.152 17.0007H117.859V18.0817H175.152V17.0007ZM173.711 79.3359H171.91V91.5871H173.711V79.3359ZM168.306 97.7146H171.909V110.687L168.306 110.687H157.856V106.723H167.225V101.678H157.856V97.7146H167.225H168.306ZM173.711 85.4648H192.449V87.9872H173.711V85.4648ZM3.27516 112.488H7.23879L11.2024 123.478H7.23879L3.27516 112.488Z" fill="#A0A1A2"/>
<path d="M296.223 104.2V112.307L287.575 116.631L289.376 118.252L293.88 122.757L290.818 139.692L304.51 143.475L306.492 122.757L311.897 107.983L308.834 104.2H304.51H299.826V101.137V84.9219L298.204 77.5352H296.223L293.88 80.7781L296.223 84.9219V104.2Z" fill="#A0A1A2"/>
<rect x="206.5" y="134.829" width="8.28758" height="12.2512" fill="#A0A1A2"/>
<path fill-rule="evenodd" clip-rule="evenodd" d="M311.537 113.027L308.835 119.874L311.537 131.584L313.339 142.214V148.52L289.917 142.214L289.201 144.569L298.882 147.215L298.027 150.343L288.295 147.683L288.664 146.333L287.395 150.502L302.349 154.105L321.086 158.609L328.112 162.392C330.214 162.032 334.346 160.411 334.058 156.807L329.373 155.546V152.303L325.77 150.502L323.428 152.303L317.483 150.502V142.214L315.501 138.431V131.584L313.339 119.874L311.537 113.027Z" fill="#A0A1A2"/>
</svg>

<svg width="335" height="169" fill="none" xmlns="http://www.w3.org/2000/svg"><path d="M111.683 134.707a9.258 9.258 0 11-18.516 0 9.258 9.258 0 0118.516 0z" fill="#A0A1A2"/><path fill-rule="evenodd" clip-rule="evenodd" d="M102.517 156.308c11.776 0 21.322-9.546 21.322-21.322 0-11.775-9.546-21.321-21.322-21.321s-21.322 9.546-21.322 21.321c0 11.776 9.546 21.322 21.322 21.322zm0 12.344c18.593 0 33.666-15.072 33.666-33.666 0-18.593-15.073-33.666-33.666-33.666-18.593 0-33.666 15.073-33.666 33.666 0 18.594 15.073 33.666 33.666 33.666z" fill="#A0A1A2"/><path d="M263.57 134.703a9.258 9.258 0 11-18.516 0 9.258 9.258 0 0118.516 0z" fill="#A0A1A2"/><path fill-rule="evenodd" clip-rule="evenodd" d="M254.401 156.304c11.776 0 21.322-9.546 21.322-21.322 0-11.775-9.546-21.321-21.322-21.321s-21.322 9.546-21.322 21.321c0 11.776 9.546 21.322 21.322 21.322zm0 12.344c18.593 0 33.666-15.072 33.666-33.666 0-18.593-15.073-33.666-33.666-33.666-18.593 0-33.666 15.073-33.666 33.666 0 18.594 15.073 33.666 33.666 33.666z" fill="#A0A1A2"/><path d="M90.656 96.273l-10.81 5.585 2.342 3.063c4.513-5.22 15.896-6.239 20.409-6.764 28.342 1.62 36.48 24.598 37.909 36.672h4.288c-1.625-23.218-17.526-39.221-25.273-44.32l-25.442-1.442c-9.729 2.342-2.972 4.732-3.423 7.206zm125.25 36.753h-4.722c1.619-20.853 16.415-36.795 23.611-42.159h41.376l10.568 2.493v7.934c4.678 4.352 11.394 15.715 14.167 20.852h-1.799l-6.071-9.973-6.297 2.836c-10.568-16.034-28.44-17.697-37.36-16.034-24.645 4.533-32.573 23.549-33.473 34.051z" fill="#A0A1A2"/><path d="M219.834 104.561V87.626h23.574l5.612 2.228h-14.817l-14.369 14.707zm7.204-24.862h2.883v6.486h-2.883zm-23.421 40.355v-4.842l10.089-.923-.897 2.537h-3.811l-1.121 3.228h-4.26zm11.171-27.023h4.324v6.846h-4.324z" fill="#A0A1A2"/><path fill-rule="evenodd" clip-rule="evenodd" d="M22.192 139.873v-7.567l-3.964-1.801-9.008-3.604-1.802-3.243H5.617l-1.081-3.603c-3.46.577-4.444-2.642-4.504-4.324h2.342l-.9-3.423.9-2.342H.032v-1.261h2.342L6.518 81.5v-5.585C23.093 69.14 74.079 61.922 97.5 59.159l.9 23.602h2.163l-2.162-52.067-7.027.9-13.152-.9v3.603c.288-1.73 2.282-1.562 3.243-1.261v14.413c-2.018.72-3.843-2.462-4.504-4.144V29.252l4.504-1.621h13.332l2.703-1.622-2.703-2.702v-5.225h18.017V17H94.798v-.9h-2.522v2.882l-3.063 1.08-1.08-5.404 1.08-.901 10.27-.9 4.324-.902c1.297-4.9 3.423-2.041 4.324 0-.145-4.9 4.984-9.729 7.567-11.53V6.37c2.882-.576 5.164 1.562 5.945 2.703l52.788 1.801 4.865 1.081v6.126h-4.865v46.122h18.737V93.57h7.567l10.27-10.81h4.684l16.935 7.027-6.666 3.783-10.269-3.783h-4.684l-7.027 9.368 7.027 7.387c-4.314.686-6.149 13.083-6.787 25.042h-19.699v3.964h19.528a207.795 207.795 0 00-.069 11.351h-56.572c.777-30.487-9.467-46.607-19.816-54.23h42.518v-2.162h-45.762v.039c-3.892-2.243-7.635-3.35-10.63-3.642h-21.44l-9.368 2.883 5.585 6.486c-20.611 3.315-29.487 25.403-31.349 36.032H42.19v7.567H22.192zM117.86 37.721V25.109h2.522v12.612h-2.522zm-.001 4.143v19.818h2.523V41.864h-2.523zm.001 43.958V66.004h2.522v19.818h-2.522zm12.252-57.471h13.152l3.243 26.664h-15.314l-1.081-26.664zm-27.746-3.063l-1.982 4.144-1.08 2.342 3.062 50.446h10.45V25.288h-10.45zM7.779 81.5l-3.062 23.24h5.405c3.243-5.945 10.125-19.818 11.71-27.745L7.78 81.5zm16.395 51.168H40.39v5.405H24.174v-5.405zm133.5-19.277l1.442 10.089h16.034l-2.702-2.342h-11.17l-2.162-7.747h-1.442zm3.424 22.159l-1.441-10.089h1.441l2.162 7.747h11.17l2.703 2.342h-16.035zm0 1.442l1.456 9.008h16.2l-2.73-2.091h-11.285l-2.185-6.917h-1.456zm-34.95-113.867h31.491l6.091 63.778h-37.582V23.125zm2.162 2.162v59.454h33.042l-5.679-59.454H128.31zm-98.73 93.327h-3.604v2.882h3.603v-2.882zm2.882-2.161h4.685v5.045h-4.685v-5.045zm15.854-15.137h-2.162v5.766h2.162v-5.766zm3.604-2.16h2.162v5.765H51.92v-5.765zm6.847-.722h-2.162v5.765h2.162v-5.765zm4.682-2.16h2.162v5.764h-2.162v-5.765zm9.008-1.801h-2.162v5.765h2.162v-5.765zM35.526 77.176l-1.081 3.783 58.193-9.188-.9-4.684-56.212 10.089zm-3.784 12.07l1.441-4.683 59.455-10.27v4.504l-60.896 10.45zm149.534 8.469h6.486v6.125h-6.486v-6.125zm-12.97-74.59h3.603v33.51h-3.603v-33.51zm6.846-6.124h-57.293v1.08h57.293v-1.08zm-1.441 62.335h-1.801v12.251h1.801V79.336zm-5.405 18.379h3.603v12.972h-14.053v-3.964h9.369v-5.045h-9.369v-3.963h10.45zm5.405-12.25h18.738v2.522h-18.738v-2.522zM3.275 112.488H7.24l3.963 10.99H7.24l-3.964-10.99z" fill="#A0A1A2"/><path d="M296.223 104.2v8.107l-8.648 4.324 1.801 1.621 4.504 4.505-3.062 16.935 13.692 3.783 1.982-20.718 5.405-14.774-3.063-3.783h-9.008V84.922l-1.622-7.387h-1.981l-2.343 3.243 2.343 4.144V104.2zM206.5 134.829h8.288v12.251H206.5z" fill="#A0A1A2"/><path fill-rule="evenodd" clip-rule="evenodd" d="M311.537 113.027l-2.702 6.847 2.702 11.71 1.802 10.63v6.306l-23.422-6.306-.716 2.355 9.681 2.646-.855 3.128-9.732-2.66.369-1.35-1.269 4.169 14.954 3.603 18.737 4.504 7.026 3.783c2.102-.36 6.234-1.981 5.946-5.585l-4.685-1.261v-3.243l-3.603-1.801-2.342 1.801-5.945-1.801v-8.288l-1.982-3.783v-6.847l-2.162-11.71-1.802-6.847z" fill="#A0A1A2"/></svg>
